src/app/client/src/assets/images/avatar-tickmark.svg

<?xml version="1.0" encoding="UTF-8"?>
<svg width="32px" height="32px" viewBox="0 0 32 32" version="1.1" xmlns="http://www.w3.org/2000/svg" xmlns:xlink="http://www.w3.org/1999/xlink">
    <!-- Generator: sketchtool 53.1 (72631) - https://sketchapp.com -->
    <title>EDBAC170-4962-472D-A0F3-F2149C2E6A42</title>
    <desc>Created with sketchtool.</desc>
    <defs>
        <path d="M12.5688397,0.486122303 C13.6461494,1.37634594 14.6185739,2.00113102 15.4861131,2.36047754 C16.3843011,2.73251918 17.7877668,3.07589762 19.6965102,3.39061286 L19.6965131,3.39059533 C20.152777,3.46582451 20.497956,3.84406991 20.5312485,4.30529416 C20.6487517,5.93314782 20.8908731,7.18976844 21.2576126,8.07515601 C21.621722,8.9541937 22.3471161,10.0429678 23.4337951,11.3414784 L23.4337813,11.34149 C23.7499976,11.7193479 23.7438505,12.2712319 23.4192961,12.6419526 C22.3551271,13.8574946 21.634566,14.9202885 21.2576126,15.8303344 C20.8751322,16.7537238 20.6308384,18.0402882 20.5247313,19.6900276 L20.5247658,19.6900298 C20.4949417,20.1537313 20.1496527,20.5358009 19.6913252,20.6122496 C17.7442359,20.9370226 16.3424986,21.2767724 15.4861131,21.6314988 C14.6568155,21.9750052 13.6857845,22.6030917 12.5730201,23.5157584 L12.5730479,23.5157922 C12.2304636,23.7967728 11.7438319,23.8188331 11.3772299,23.5700017 C9.99692525,22.6331188 8.87770393,21.9869512 8.01956594,21.6314988 C7.15753995,21.274436 5.89782958,20.9368759 4.24043482,20.6188187 L4.24044372,20.6187723 C3.8120897,20.5365704 3.48643517,20.1862054 3.435726,19.752993 C3.22879259,17.9851453 2.949853,16.6775924 2.59890723,15.8303344 C2.25366603,14.9968484 1.55548295,13.9249706 0.504357997,12.614701 L0.504359221,12.6147 C0.214855772,12.2538222 0.210697799,11.7414718 0.494306107,11.375943 C1.54888141,10.0167527 2.25041512,8.9164904 2.59890723,8.07515601 C2.95105616,7.2249933 3.2296391,5.94652623 3.43465604,4.23975481 L3.43470527,4.23976072 C3.48636678,3.80967731 3.809072,3.46176307 4.23406316,3.37795875 C5.92520749,3.04448075 7.18704175,2.70532035 8.01956594,2.36047754 C8.84716558,2.01767454 9.96539409,1.37314523 11.3742515,0.42688959 L11.3742239,0.426848522 C11.7416667,0.180056477 12.2276319,0.204168829 12.5688397,0.486122303 Z" id="path-1"></path>
        <filter x="-28.0%" y="-23.9%" width="155.8%" height="156.2%" filterUnits="objectBoundingBox" id="filter-2">
            <feMorphology radius="0.5" operator="dilate" in="SourceAlpha" result="shadowSpreadOuter1"></feMorphology>
            <feOffset dx="0" dy="1" in="shadowSpreadOuter1" result="shadowOffsetOuter1"></feOffset>
            <feGaussianBlur stdDeviation="2" in="shadowOffsetOuter1" result="shadowBlurOuter1"></feGaussianBlur>
            <feComposite in="shadowBlurOuter1" in2="SourceAlpha" operator="out" result="shadowBlurOuter1"></feComposite>
            <feColorMatrix values="0 0 0 0 0   0 0 0 0 0   0 0 0 0 0  0 0 0 0.5 0" type="matrix" in="shadowBlurOuter1"></feColorMatrix>
        </filter>
    </defs>
    <g id="Page-1" stroke="none" stroke-width="1" fill="none" fill-rule="evenodd">
        <g id="Web-Profile" transform="translate(-736.000000, -173.000000)">
            <g id="Group-12" transform="translate(740.000000, 176.000000)">
                <g id="Polygon">
                    <use fill="black" fill-opacity="1" filter="url(#filter-2)" xlink:href="#path-1"></use>
                    <use stroke="#FFFFFF" stroke-width="1" fill="#008840" fill-rule="evenodd" xlink:href="#path-1"></use>
                </g>
                <path d="M10.9044681,13.8264431 L15.4871814,8.84569844 C15.7835859,8.52938062 16.4718962,8.43374318 16.856528,8.84569844 C17.2411597,9.2576537 17.2144784,10.0091292 16.9180738,10.325447 C16.7335386,10.5223798 14.9768714,12.4228803 11.6480723,16.0269483 L11.6480402,16.0269186 C11.2733333,16.4326112 10.6406945,16.4577301 10.2350019,16.0830232 C10.2168345,16.0662433 10.1992959,16.0487953 10.1824221,16.0307151 C10.089631,15.9312892 10.006653,15.8423903 9.93348817,15.7640184 C9.9265798,15.758211 9.9197883,15.7521861 9.91312242,15.7459434 C9.90507352,15.7384055 9.8972762,15.7306034 9.88974325,15.7225498 L7.05998989,12.6972361 C6.71715161,12.3307047 6.85059362,11.714919 7.15119055,11.3883402 C7.45178747,11.0617614 8.15171048,10.9091126 8.45412222,11.2067572 L10.9044681,13.8264431 Z" id="Combined-Shape" fill="#FFFFFF" fill-rule="nonzero"></path>
            </g>
        </g>
    </g>
</svg>

<svg xmlns="http://www.w3.org/2000/svg" xmlns:xlink="http://www.w3.org/1999/xlink" width="32" height="32" xmlns:v="https://vecta.io/nano"><defs><path d="M12.57.486c1.077.9 2.05 1.515 2.917 1.874.898.372 2.302.715 4.2 1.03h0a1 1 0 0 1 .835.915c.118 1.628.36 2.884.726 3.77.364.88 1.1 1.968 2.176 3.266h0a1 1 0 0 1-.014 1.3c-1.064 1.216-1.785 2.278-2.162 3.188-.382.923-.627 2.2-.733 3.86h0a1 1 0 0 1-.833.922c-1.947.325-3.35.665-4.205 1.02-.83.344-1.8.972-2.913 1.884h0a1 1 0 0 1-1.196.054c-1.38-.937-2.5-1.583-3.358-1.94s-2.122-.695-3.78-1.013h0a1 1 0 0 1-.805-.866c-.207-1.768-.486-3.075-.837-3.923-.345-.833-1.043-1.905-2.095-3.216h0a1 1 0 0 1-.01-1.239c1.055-1.36 1.756-2.46 2.105-3.3.352-.85.63-2.13.836-3.835h0a1 1 0 0 1 .799-.862c1.69-.333 2.953-.673 3.786-1.017s1.946-.987 3.355-1.934h0a1 1 0 0 1 1.195.059z" id="A"/><filter x="-28.0%" y="-23.9%" width="155.8%" height="156.2%" id="B"><feMorphology radius="0.5" operator="dilate" in="SourceAlpha"/><feOffset dy="1"/><feGaussianBlur stdDeviation="2"/><feComposite in2="SourceAlpha" operator="out"/><feColorMatrix values="0 0 0 0 0 0 0 0 0 0 0 0 0 0 0 0 0 0 0.5 0"/></filter></defs><g transform="translate(4 3)" fill-rule="evenodd"><use fill="#000" filter="url(#B)" xlink:href="#A"/><use stroke="#fff" fill="#008840" xlink:href="#A"/><path d="M10.904 13.826l4.583-4.98c.296-.316.985-.412 1.37 0s.358 1.163.062 1.48l-5.27 5.7a1 1 0 0 1-1.413.056l-.053-.052-.25-.267-.02-.018-.023-.023-2.83-3.025c-.343-.367-.21-.982.09-1.31s1-.48 1.303-.182l2.45 2.62z" fill="#fff" fill-rule="nonzero"/></g></svg>
